assets/images/coelho.svg

<svg width="53" height="47" viewBox="0 0 53 47" fill="none" xmlns="http://www.w3.org/2000/svg">
<g clip-path="url(#clip0_19_188)">
<path d="M23.1869 40.3661C23.2656 40.8488 23.4895 41.3021 23.4709 41.8021C23.4482 42.0061 23.6389 42.2048 23.5282 42.4021C23.4216 42.4435 23.3176 42.4755 23.2122 42.5035C22.7322 42.9048 22.1362 43.2728 21.4869 43.2195C21.0402 43.2221 20.5842 43.0608 20.1509 43.2195C19.7736 43.3488 19.3122 43.4301 19.1095 43.8155C19.7735 44.0168 20.4309 43.7448 21.0856 43.6355C21.9949 43.9488 22.9922 43.4195 23.8642 43.8515C24.4416 43.7701 25.0109 43.5941 25.6015 43.6861C24.9442 42.8675 24.3269 41.9648 24.1269 40.9168C23.8136 40.7315 23.5122 40.5261 23.1869 40.3661V40.3661ZM35.3536 36.0048C35.2216 36.2648 35.0695 36.5155 34.9375 36.7781C34.7589 37.1501 34.7802 37.5728 34.7375 37.9755C34.6935 38.6048 34.5069 39.2141 34.2816 39.7995C34.1269 40.1821 33.7562 40.4581 33.7202 40.8928C34.2936 41.2181 34.9709 41.1528 35.6042 41.1235C35.7589 41.1248 35.8842 41.0235 36.0082 40.9435C35.8802 40.9301 35.7575 40.9248 35.6375 40.9248C35.6042 40.9728 35.5362 41.0661 35.5029 41.1141C35.3176 41.1088 35.1363 41.1101 34.9576 41.0915C34.8176 40.9808 34.7415 40.8208 34.8682 40.6755C35.0789 40.5288 35.3496 40.5795 35.5936 40.5515C35.8936 40.5595 36.0869 40.2808 36.2816 40.0955C36.4189 39.9661 36.3789 39.7568 36.4216 39.6008C36.0629 39.7781 35.7096 40.1515 35.2816 40.0368C35.0176 39.9261 35.1442 39.5635 35.3816 39.5115C35.8576 39.3301 36.3402 39.0901 36.6015 38.6288C36.3575 38.7555 36.0975 38.9208 35.8095 38.8541C35.5735 38.8341 35.5429 38.5195 35.6989 38.3928C35.9389 38.1928 36.2029 38.0208 36.4922 37.8981C36.4509 37.7168 36.5442 37.4688 36.3309 37.3888C36.2029 37.4915 36.1003 37.6128 35.9829 37.7288C35.8243 37.8048 35.5803 37.7261 35.5576 37.5368C35.4936 37.2021 35.8362 37.0088 36.0536 36.8368C36.2109 36.9555 36.3443 37.1075 36.2936 37.3288C36.3656 37.1541 36.3202 36.9688 36.2816 36.7981C36.1602 36.7341 36.0803 36.6355 35.9883 36.5555C35.9616 36.6248 35.9082 36.7608 35.8816 36.8315C35.7082 36.8421 35.4789 36.8461 35.4549 36.6288C35.4949 36.4008 35.6709 36.0995 35.3536 36.0048ZM21.1189 30.3181C21.1283 30.8608 21.1536 31.4048 21.0909 31.9488C20.9709 32.3288 20.8122 32.7021 20.6402 33.0661C20.4509 34.0835 20.0842 35.0581 19.9149 36.0808C19.8976 36.2848 19.8762 36.4821 19.8735 36.6928C20.1455 35.6541 20.7323 34.7141 21.4576 33.9315C21.4629 33.3381 21.3415 32.7501 21.3655 32.1621C21.3855 31.5368 21.3349 30.9061 21.1189 30.3181ZM26.8803 12.2821C25.7936 13.8208 24.8096 15.4275 23.7029 16.9515C23.4202 17.3848 23.0535 17.7514 22.6735 18.0994C22.3629 18.3768 21.9869 18.5834 21.7296 18.9168C21.4403 19.3034 21.1149 19.6688 20.8509 20.0741C20.7029 20.0888 20.5549 20.0848 20.4136 20.0608C20.3123 19.7501 20.4549 19.4608 20.6349 19.2195C20.0655 19.2101 19.5149 19.4181 19.0963 19.8008C18.6576 20.0675 18.4309 20.7275 17.8243 20.6035C17.5443 20.9808 17.2842 21.3781 17.0509 21.7901C16.6842 22.3848 16.4723 23.0608 16.1269 23.6728C16.3163 23.6661 16.5389 23.6341 16.6922 23.7901C16.9936 24.2288 17.0869 24.8261 16.8696 25.3208C16.9122 25.5621 17.2669 25.4675 17.4523 25.4848C17.9816 25.5061 18.3949 25.1261 18.8909 25.0021C19.2616 24.8688 19.7602 24.7275 20.0722 25.0595C20.4656 25.9008 20.9736 26.6981 21.1963 27.6088C21.2829 27.9408 21.1616 28.2941 21.2749 28.6261C21.3882 28.9568 21.4296 29.3195 21.6243 29.6235C21.8056 29.8808 21.8349 30.2048 21.9189 30.5061C22.0989 31.2635 22.4683 31.9755 22.4883 32.7648C22.6736 32.6368 22.9203 32.4995 22.9576 32.2608C22.9483 31.6861 22.9682 31.1061 22.7842 30.5581C22.7016 29.9915 22.5776 29.3941 22.7256 28.8301C22.7816 28.8301 22.8962 28.8275 22.9509 28.8248C23.1669 29.2915 23.2163 29.8088 23.3269 30.3061C23.4416 30.8955 23.5763 31.4808 23.6296 32.0795C23.7883 32.1128 24.0243 32.1328 24.0163 32.3621C24.0243 32.5275 23.8389 32.5688 23.7282 32.6395C23.4669 33.2621 22.9416 33.7115 22.5603 34.2595C21.8429 35.1061 21.2402 36.0595 20.8642 37.1075C20.7256 37.6168 20.6376 38.1368 20.5976 38.6661C21.0576 38.0888 21.4189 37.4515 21.7816 36.8141C22.3096 35.7941 23.2802 35.1275 24.0256 34.2808C24.2629 33.9968 24.6096 33.8195 24.9829 33.8448C25.0136 33.2235 24.9762 32.5995 25.0642 31.9848C25.0869 31.9901 25.1309 32.0008 25.1523 32.0075C25.0949 31.3621 25.2589 30.7328 25.2749 30.0928C25.2602 29.6928 25.6789 29.3435 26.0562 29.5621C26.4842 29.8528 26.3336 30.4581 26.2576 30.8915C26.2576 31.6595 26.1389 32.4208 26.1309 33.1941C26.1829 33.5661 25.8109 33.7741 25.7243 34.1075C25.4043 34.3381 25.1043 34.6048 24.8936 34.9435C24.4283 35.6235 23.9483 36.2981 23.5576 37.0315C23.4269 37.2288 23.5589 37.4635 23.6269 37.6635C23.7856 38.0355 23.8909 38.4381 24.1042 38.7901C24.1042 38.3035 24.2042 37.8328 24.3336 37.3688C24.4949 36.8581 24.8603 36.4488 25.2296 36.0728C25.4683 35.8515 25.7362 35.6368 26.0589 35.5621C27.1602 35.2208 28.3949 35.2421 29.4603 35.7021C29.6643 35.7821 29.5949 36.0341 29.6082 36.2101C29.3349 36.3115 29.0443 36.3608 28.7603 36.3288C28.0256 36.2568 27.2682 36.2675 26.5655 36.5021C25.8922 36.7275 25.3896 37.3461 25.2842 38.0461C25.0776 39.3448 25.1322 40.7741 25.8669 41.9141C26.2336 42.4795 26.5829 43.1035 27.1696 43.4781C27.4389 43.6701 27.7042 43.8928 27.8682 44.1875C27.8975 44.4888 27.5815 44.6088 27.3429 44.6595C27.2349 44.7701 27.1469 44.9235 26.9816 44.9528C26.8016 44.9421 26.7576 44.7701 26.6922 44.6488C25.5549 44.5808 24.4243 44.8715 23.3603 45.2488C22.9629 45.3661 22.6869 45.7301 22.7375 46.1515C23.4282 46.1541 24.1216 46.0608 24.7869 45.8821C25.9202 45.7555 27.0043 45.3981 28.0936 45.0768C28.7189 44.8688 29.3895 44.9128 30.0375 44.9368C30.1429 44.8461 30.2496 44.7541 30.3629 44.6688C30.3683 44.3008 30.3283 43.9368 30.3296 43.5741C30.3723 43.2701 30.5269 43.0008 30.6696 42.7341C30.9602 42.2035 31.6402 42.1795 32.0749 41.8195C32.2882 41.6901 32.3429 41.4328 32.4429 41.2248C33.5309 39.2648 33.6629 36.9208 33.3789 34.7368C33.3149 34.0901 33.0309 33.4955 32.7322 32.9275C32.4989 32.4901 32.2829 32.0315 31.9269 31.6821C31.3136 30.9661 30.5215 30.4488 29.8015 29.8568C29.0069 29.3488 28.3843 28.6315 27.6163 28.0915C26.9576 27.5541 26.5109 26.8235 25.9629 26.1861C25.4963 25.6501 24.7869 25.3995 24.3496 24.8421C24.1949 24.6381 24.1549 24.3821 24.0963 24.1488C23.8803 23.4821 23.7589 22.7928 23.6735 22.1035C23.5429 21.6475 23.4456 21.1781 23.2269 20.7555C23.0016 20.8995 22.8002 21.1061 22.5362 21.1741C22.1136 21.2315 21.7909 20.7021 22.0243 20.3528C22.4603 19.8008 23.0389 19.3781 23.6722 19.0768C24.5122 18.7101 25.2296 18.1035 25.8216 17.4088C26.3989 16.7901 26.8669 16.0648 27.2149 15.2928C27.4096 14.6981 27.6162 14.1061 27.8309 13.5168C27.8242 13.3914 27.8242 13.2701 27.8309 13.1541C27.7309 12.8621 27.6362 12.5555 27.4402 12.3141C27.2962 12.1461 27.0216 12.0875 26.8803 12.2821V12.2821ZM20.2816 11.1341C20.0802 12.0141 20.1003 12.9301 19.9829 13.8275C19.9309 14.2981 19.7816 14.7608 19.7803 15.2421C19.7589 15.8821 19.5682 16.5008 19.4202 17.1208C19.2882 17.5421 19.3429 18.0101 19.1496 18.4168C19.2376 18.4034 19.3309 18.3968 19.4309 18.3968C19.6029 18.2701 19.8109 18.2421 20.0216 18.2195C20.1149 17.5595 20.4429 16.9701 20.6122 16.3341C20.9362 15.6768 21.1482 14.9595 21.1456 14.2261C21.1602 13.1315 21.3175 11.9861 20.8989 10.9461C20.7629 10.6581 20.3336 10.8781 20.2816 11.1341ZM19.4269 11.0968C19.5109 10.4848 20.1042 10.0888 20.6749 10.0061C21.1522 9.95146 21.6016 10.2701 21.7776 10.7061C22.1136 11.5955 22.2042 12.5541 22.2096 13.4981C22.1922 13.9488 22.3149 14.3955 22.2243 14.8475C22.1189 16.1208 21.4882 17.2595 21.1056 18.4581C21.8896 17.7021 22.7002 16.9448 23.2816 16.0115C23.9349 15.2195 24.3682 14.2821 24.9482 13.4448C25.4136 12.8581 25.7549 12.1795 26.2642 11.6288C26.8909 11.0821 27.9136 11.3701 28.3216 12.0488C28.6683 12.6701 28.8336 13.4261 28.6122 14.1195C28.3669 14.8221 28.1496 15.5408 27.7549 16.1795C27.2989 17.1955 26.5496 18.0301 25.7856 18.8275C25.1709 19.3008 24.6242 19.8808 23.9029 20.1955C23.9149 20.5075 24.2643 20.6594 24.3163 20.9661C24.4109 21.3088 24.5509 21.6395 24.6816 21.9741C24.7762 22.6115 24.5829 23.2955 24.8655 23.9035C25.3069 24.1861 25.8109 24.3728 26.2082 24.7248C26.7002 25.1741 27.1789 25.6581 27.4735 26.2635C27.7349 26.8061 28.1202 27.2728 28.4922 27.7435C29.3776 28.4608 30.3509 29.0608 31.3362 29.6341C32.1349 30.0875 32.8496 30.7128 33.3576 31.4835C34.0643 32.6208 34.7069 33.8728 34.7176 35.2408C34.9536 35.1088 35.1949 34.9261 35.4856 34.9515C35.9069 34.9795 36.2655 35.2408 36.5762 35.5088C36.9629 35.8568 37.3483 36.2475 37.5243 36.7515C37.9843 37.9875 37.9056 39.3488 37.6149 40.6168C37.3949 41.1528 37.2202 41.7501 36.7589 42.1368C36.2402 42.5048 35.5802 42.5475 34.9682 42.5715C34.4909 42.5688 33.9776 42.6008 33.5549 42.3501C33.3763 42.2635 33.1229 42.0248 32.9682 42.2675C32.6362 42.7101 32.0749 42.8368 31.6336 43.1275C31.3096 43.4248 31.2375 43.8981 31.3095 44.3195C31.5109 44.5875 31.6989 44.9581 31.5082 45.2915C31.3696 45.5075 31.1949 45.7835 30.9069 45.7888C30.5589 45.7901 30.2322 45.9355 29.8869 45.9328C29.1936 45.9421 28.5003 45.9648 27.8136 46.0608C27.2189 46.1315 26.6749 46.4021 26.1176 46.6021C25.6056 46.8075 25.0242 46.7568 24.5282 47.0153C23.9656 47.2929 23.3269 47.1501 22.7282 47.2329C22.3162 47.2809 21.8402 47.0877 21.7015 46.6781C21.5069 46.2875 21.8042 45.9261 21.8562 45.5501C21.8922 45.2715 22.0229 45.0221 22.1416 44.7755C21.7896 44.7675 21.4363 44.6661 21.0909 44.7475C20.2696 45.0275 19.3402 44.9395 18.5389 44.6395C17.8869 44.2755 18.0709 43.3755 18.4816 42.9008C18.8256 42.5568 19.2816 42.3328 19.7589 42.2381C20.4002 42.0421 21.0736 42.1581 21.7336 42.1221C21.9749 42.0608 22.1669 41.8808 22.3762 41.7515C22.3762 40.9541 22.0456 40.2035 22.0082 39.4075C21.8789 39.0515 21.8989 38.6715 21.9669 38.3048C21.7269 38.6315 21.5309 38.9928 21.2709 39.3035C21.0162 39.5661 20.6309 39.7635 20.2616 39.6621C19.9016 39.5781 19.7189 39.2208 19.6189 38.9035C19.5283 38.6368 19.6162 38.3421 19.5256 38.0888C19.3562 37.9341 19.1389 37.8301 19.0216 37.6355C18.9456 37.4661 18.9309 37.2861 18.8989 37.1168C18.8055 36.7155 18.8096 36.3035 18.9002 35.9075C19.0336 34.6915 19.3896 33.5141 19.8229 32.3781C19.9349 31.9928 20.2016 31.6501 20.1816 31.2381C20.2056 30.3688 20.2163 29.4995 20.1909 28.6315C20.1789 28.1541 20.2562 27.6381 19.9735 27.2261C19.6869 26.7728 19.5282 26.2328 19.2122 25.8101C18.6976 25.9075 18.2816 26.2888 17.7469 26.3141C17.3269 26.3475 16.8576 26.4075 16.4869 26.1728C16.0736 25.8568 15.6656 25.5355 15.3082 25.1608C15.1389 24.9768 14.9442 24.7568 15.0149 24.4875C15.1469 23.8368 15.4683 23.2435 15.6909 22.6221C15.8749 22.0021 16.2029 21.4408 16.4963 20.8701C16.9056 20.1221 17.5229 19.5128 18.2109 19.0195C18.5069 17.9101 18.5669 16.7541 18.9069 15.6581C18.9309 14.8288 19.0789 14.0168 19.2122 13.2048C19.2082 12.4955 19.3069 11.7901 19.4269 11.0968" fill="#0A0A0B"/>
<path d="M19.1203 21.1701C19.5576 20.9181 20.2016 21.3741 20.0949 21.8675C20.0469 22.3168 19.4656 22.4808 19.111 22.2995C18.779 22.0128 18.7949 21.4475 19.1203 21.1701Z" fill="#0A0A0B"/>
<path d="M29.6469 31.1208C29.6416 30.9008 29.8416 30.9341 29.9909 30.9154C29.9989 30.9928 30.0149 31.1448 30.0216 31.2221C29.9669 31.4208 29.6149 31.3274 29.6469 31.1208" fill="#0A0A0B"/>
<path d="M31.9869 34.9968C32.0535 34.9968 32.1856 34.9928 32.2522 34.9928C32.2736 35.1141 32.3975 35.3901 32.1642 35.3848C31.9042 35.4181 31.9015 35.1594 31.9869 34.9968Z" fill="#0A0A0B"/>
<path d="M26.0776 35.1768C26.207 35.2421 26.2003 35.3115 26.0603 35.3875C25.927 35.3115 25.9323 35.2408 26.0776 35.1768Z" fill="#0A0A0B"/>
<path d="M31.9856 36.8475C32.1349 36.7155 32.3029 36.9915 32.1442 37.0928C31.9869 37.2048 31.8203 36.9381 31.9856 36.8475Z" fill="#0A0A0B"/>
<path d="M31.583 38.3234C31.7777 38.1514 32.1457 38.3274 32.1297 38.5941C32.179 38.9208 31.6936 39.1021 31.4923 38.8648C31.327 38.7061 31.3963 38.4234 31.583 38.3234" fill="#0A0A0B"/>
<path d="M28.5576 39.8528C28.7816 39.6954 29.1389 39.8608 29.1256 40.1528C29.1642 40.4768 28.6789 40.6741 28.4856 40.4088C28.3002 40.2435 28.4322 40.0034 28.5576 39.8528Z" fill="#0A0A0B"/>
<path d="M31.0682 39.8901C31.2616 39.7608 31.5802 39.8821 31.5655 40.1421C31.6095 40.3768 31.3189 40.5448 31.1256 40.4421C30.9042 40.3648 30.8762 39.9995 31.0682 39.8901" fill="#0A0A0B"/>
<path d="M30.1243 40.9048C30.619 40.6195 31.2483 41.5355 30.8056 41.9035C30.2643 42.2461 29.647 41.2688 30.1243 40.9048Z" fill="#0A0A0B"/>
<path d="M27.5869 41.4915C27.5896 41.3275 27.7923 41.1675 27.9443 41.2901C27.9616 41.3781 27.9843 41.4741 28.0029 41.5728C27.8563 41.5595 27.7042 41.5835 27.5869 41.4915Z" fill="#0A0A0B"/>
<path d="M28.7816 41.9354C28.9763 41.7821 29.3109 41.8474 29.4083 42.0901C29.5016 42.3061 29.5029 42.5688 29.4416 42.8021C29.2776 43.1461 28.6936 43.0514 28.6069 42.6928C28.5776 42.4341 28.5296 42.1048 28.7816 41.9354Z" fill="#0A0A0B"/>
<path d="M24.0603 42.9061C24.2496 42.9061 24.5749 42.8701 24.5776 43.1541C24.6243 43.4074 24.3163 43.4901 24.1256 43.4154C23.9203 43.3181 24.0496 43.0674 24.0603 42.9061Z" fill="#0A0A0B"/>
<path d="M22.6616 43.0755C22.7549 42.9261 23.0363 43.0728 22.9163 43.2341C22.8123 43.3755 22.5309 43.2275 22.6616 43.0755Z" fill="#0A0A0B"/>
</g>
<defs>
<clipPath id="clip0_19_188">
<rect width="53" height="47" fill="white"/>
</clipPath>
</defs>
</svg>

<svg width="53" height="47" fill="none" xmlns="http://www.w3.org/2000/svg"><g clip-path="url(#a)"><path d="M18.5 19.5c-1.2 0-2.5 3.333-3 5 .5.5 1.6 1.5 2 1.5.4 0 1.5-.667 2-1l1 2v4L19 36l1 1 .5 2 1.5-1 1 4c-1.167.333-3.6 1.1-4 1.5-.4.4.167.833.5 1l4-.5-.5 1c-.5.333-1.4 1.1-1 1.5.4.4 6.167-.5 9-1V43c0-.8 1-1.333 1.5-1.5H34c.5 0 2 .5 3-1 .8-1.2-.333-3.5-1-4.5h-1c-.333 1.167-1 2.6-1-1s-4.333-6.5-6.5-7.5c-1.333-1-3.9-3.1-3.5-3.5.4-.4-.167-2.833-.5-4 1.333-1.167 4.1-4 4.5-6 .4-2-.833-1.833-1.5-1.5l-5 7-1-.5c.333-2 1-6.3 1-7.5 0-1.5-2-1-2 .5 0 1.2-.667 5.5-1 7.5Z" fill="#fff"/><path d="M23.187 40.366c.079.483.302.936.284 1.436-.023.204.168.403.057.6-.106.041-.21.073-.316.102-.48.4-1.076.769-1.725.715-.447.003-.903-.158-1.336 0-.377.13-.839.211-1.041.596.663.202 1.32-.07 1.976-.18.909.314 1.906-.215 2.778.217.578-.082 1.147-.258 1.738-.166-.658-.819-1.275-1.721-1.475-2.77-.313-.184-.615-.39-.94-.55Zm12.167-4.361c-.132.26-.285.51-.416.773-.18.372-.158.795-.2 1.197-.044.63-.231 1.24-.456 1.825-.155.382-.526.658-.562 1.093.574.325 1.25.26 1.884.23.155.002.28-.1.404-.18a3.54 3.54 0 0 0-.37-.018c-.034.048-.102.141-.135.19-.185-.006-.367-.005-.545-.023-.14-.111-.216-.271-.09-.416.21-.147.482-.096.726-.125.3.008.493-.27.688-.456.137-.129.097-.338.14-.494-.36.177-.712.55-1.14.436-.264-.11-.138-.474.1-.526.476-.18.958-.42 1.22-.882-.244.127-.505.292-.792.225-.236-.02-.267-.334-.111-.461.24-.2.504-.372.793-.495-.041-.181.052-.43-.161-.51-.128.104-.23.225-.348.34-.159.077-.403-.002-.425-.191-.064-.335.278-.528.496-.7.157.118.29.27.24.492.072-.175.026-.36-.012-.53-.122-.065-.202-.163-.294-.243-.026.069-.08.205-.106.276-.174.01-.403.014-.427-.203.04-.228.216-.53-.101-.624Zm-14.235-5.687c.01.543.035 1.087-.028 1.63-.12.38-.279.754-.45 1.118-.19 1.017-.557 1.992-.726 3.015-.017.204-.039.401-.041.612.271-1.039.858-1.979 1.584-2.761.005-.594-.116-1.182-.092-1.77.02-.625-.031-1.256-.247-1.844Zm5.761-18.036c-1.086 1.539-2.07 3.146-3.177 4.67-.283.433-.65.8-1.03 1.147-.31.278-.686.484-.943.818-.29.386-.615.752-.88 1.157-.147.015-.295.01-.436-.013-.102-.31.04-.6.22-.841-.569-.01-1.12.198-1.538.58-.438.267-.665.927-1.272.803-.28.378-.54.775-.773 1.187-.367.595-.579 1.27-.924 1.883.19-.007.412-.039.565.117.302.439.395 1.036.178 1.53.042.242.397.148.582.165.53.021.943-.359 1.439-.483.37-.133.87-.274 1.181.058.394.84.902 1.638 1.124 2.549.087.332-.034.685.079 1.017.113.33.155.694.35.997.18.258.21.582.294.883.18.758.55 1.47.57 2.259.185-.128.431-.266.469-.504-.01-.575.01-1.155-.174-1.703-.082-.567-.206-1.164-.058-1.728.056 0 .17-.002.225-.005.216.466.265.984.376 1.481.115.59.25 1.175.303 1.774.158.033.394.053.386.282.008.166-.177.207-.288.277-.261.623-.786 1.072-1.168 1.62-.717.847-1.32 1.8-1.696 2.849a8.307 8.307 0 0 0-.266 1.558c.46-.577.82-1.214 1.184-1.852.528-1.02 1.498-1.687 2.244-2.533.237-.284.584-.462.957-.436.03-.621-.007-1.245.081-1.86.023.005.067.016.088.023-.057-.646.107-1.275.123-1.915-.015-.4.404-.75.781-.53.428.29.278.895.202 1.329 0 .768-.12 1.529-.127 2.302.052.372-.32.58-.407.913-.32.231-.62.498-.83.837-.466.68-.946 1.354-1.336 2.087-.131.198 0 .433.069.633.159.371.264.774.477 1.126 0-.486.1-.957.23-1.421.16-.51.526-.92.896-1.296.238-.221.506-.436.829-.51 1.101-.342 2.336-.32 3.401.14.204.08.135.331.148.507-.273.102-.564.15-.848.119-.734-.072-1.492-.062-2.195.173a1.952 1.952 0 0 0-1.28 1.544c-.207 1.299-.153 2.728.582 3.868.367.566.716 1.19 1.303 1.564.269.192.534.415.698.71.03.3-.287.42-.525.471-.108.111-.196.264-.361.294-.18-.01-.224-.183-.29-.304-1.137-.068-2.268.222-3.332.6-.397.117-.673.481-.622.902.69.003 1.384-.09 2.049-.269 1.133-.127 2.217-.484 3.307-.805.625-.208 1.296-.164 1.944-.14.105-.09.212-.183.325-.268.005-.368-.035-.732-.033-1.095.042-.304.197-.573.34-.84.29-.53.97-.555 1.405-.915.213-.129.268-.386.368-.594 1.088-1.96 1.22-4.304.936-6.488-.064-.647-.348-1.242-.647-1.81-.233-.437-.45-.895-.805-1.245-.613-.716-1.405-1.233-2.125-1.825-.795-.508-1.418-1.226-2.186-1.765-.658-.538-1.105-1.268-1.653-1.906-.467-.536-1.176-.787-1.613-1.344-.155-.204-.195-.46-.254-.693-.216-.667-.337-1.356-.422-2.046-.131-.456-.228-.925-.447-1.348-.225.145-.427.351-.69.42-.423.056-.746-.473-.513-.822.436-.552 1.015-.975 1.648-1.276.84-.367 1.558-.974 2.15-1.668a7.809 7.809 0 0 0 1.393-2.116c.195-.595.401-1.187.616-1.776a3.274 3.274 0 0 1 0-.363c-.1-.292-.195-.598-.39-.84-.145-.168-.42-.226-.56-.032Zm-6.598-1.148c-.202.88-.182 1.796-.3 2.694-.051.47-.2.933-.202 1.414-.021.64-.212 1.259-.36 1.879-.132.421-.077.89-.27 1.296.088-.014.18-.02.28-.02.173-.127.38-.155.592-.177.093-.66.42-1.25.59-1.886.324-.657.536-1.374.534-2.108.014-1.095.171-2.24-.247-3.28-.136-.288-.565-.068-.617.188Zm-.855-.037c.084-.612.677-1.008 1.248-1.09.477-.056.927.263 1.103.7.336.888.426 1.847.432 2.791-.018.45.105.898.014 1.35-.105 1.273-.736 2.411-1.118 3.61.784-.756 1.594-1.513 2.176-2.446.653-.793 1.086-1.73 1.666-2.567.466-.587.807-1.265 1.316-1.816.627-.547 1.65-.259 2.058.42.346.621.512 1.377.29 2.07-.245.703-.462 1.422-.857 2.06-.456 1.017-1.205 1.851-1.97 2.649-.614.473-1.16 1.053-1.882 1.367.012.313.361.464.413.771.095.343.235.674.366 1.008.094.637-.1 1.322.184 1.93.44.282.945.469 1.342.82.492.45.97.934 1.266 1.54.26.542.646 1.009 1.018 1.48.886.717 1.859 1.317 2.844 1.89.799.453 1.514 1.079 2.022 1.85.706 1.137 1.349 2.389 1.36 3.757.236-.132.477-.315.768-.29.42.029.78.29 1.09.558.387.348.772.739.948 1.242.46 1.236.382 2.598.09 3.866-.22.536-.394 1.133-.855 1.52-.519.368-1.179.41-1.79.434-.478-.002-.991.03-1.414-.22-.179-.087-.432-.326-.587-.084-.332.443-.893.57-1.334.86-.324.298-.396.771-.325 1.192.202.268.39.64.2.972-.14.217-.314.492-.602.498-.348.001-.675.146-1.02.144-.693.01-1.387.032-2.073.128-.595.07-1.14.341-1.696.541-.512.206-1.094.155-1.59.413-.562.278-1.201.135-1.8.218-.412.048-.888-.145-1.027-.555-.194-.39.103-.752.155-1.128.036-.278.167-.528.286-.774-.352-.009-.706-.11-1.051-.029-.821.28-1.75.193-2.552-.108-.652-.364-.468-1.264-.057-1.738.344-.344.8-.568 1.277-.663.641-.196 1.315-.08 1.975-.116.24-.061.433-.241.642-.37 0-.798-.33-1.549-.368-2.345-.13-.355-.11-.735-.041-1.102-.24.327-.436.688-.696.998-.255.263-.64.46-1.01.36-.36-.085-.542-.442-.642-.76-.09-.266-.003-.56-.093-.814-.17-.155-.387-.259-.504-.453-.076-.17-.091-.35-.123-.52a2.684 2.684 0 0 1 .001-1.209c.134-1.215.49-2.393.923-3.529.112-.385.379-.728.359-1.14.024-.87.034-1.738.009-2.607-.012-.477.065-.993-.217-1.405-.287-.453-.446-.993-.762-1.416-.514.098-.93.479-1.465.504-.42.034-.89.093-1.26-.141-.413-.316-.821-.637-1.179-1.012-.17-.184-.364-.404-.293-.674.132-.65.453-1.243.676-1.865.184-.62.512-1.181.805-1.752.41-.748 1.027-1.357 1.715-1.85.296-1.11.356-2.266.696-3.362.024-.83.172-1.641.305-2.453-.004-.71.095-1.415.215-2.108" fill="#0A0A0B"/><path d="M19.12 21.17c.438-.252 1.082.204.975.697-.048.45-.63.614-.984.432-.332-.286-.316-.851.01-1.129ZM29.647 31.12c-.005-.22.195-.186.344-.205.008.078.024.23.03.307-.054.199-.406.105-.374-.101M31.987 34.997c.067 0 .198-.004.265-.004.021.121.145.397-.088.392-.26.033-.263-.226-.177-.388ZM26.078 35.177c.129.065.122.135-.018.21-.133-.075-.128-.146.018-.21ZM31.986 36.847c.149-.132.317.145.158.246-.157.112-.324-.155-.158-.246ZM31.583 38.323c.195-.172.563.004.547.271.049.327-.436.508-.638.27-.165-.158-.096-.44.09-.54M28.558 39.853c.224-.158.58.008.568.3.038.324-.447.521-.64.256-.186-.166-.054-.406.072-.556ZM31.068 39.89c.194-.13.512-.008.497.252.044.235-.246.403-.44.3-.22-.077-.249-.443-.057-.552M30.124 40.905c.495-.285 1.124.63.682.998-.542.343-1.159-.634-.682-.998ZM27.587 41.492c.003-.164.205-.325.357-.202.018.088.04.184.059.283-.147-.014-.299.01-.416-.081ZM28.782 41.935c.194-.153.529-.088.626.155.093.216.095.479.034.712-.165.344-.748.25-.835-.11-.03-.258-.078-.587.175-.757ZM24.06 42.906c.19 0 .515-.036.518.248.046.253-.262.336-.453.261-.205-.097-.075-.348-.065-.509ZM22.662 43.075c.093-.149.374-.002.254.16-.104.14-.385-.008-.254-.16Z" fill="#0A0A0B"/></g><defs><clipPath id="a"><path fill="#fff" d="M0 0h53v47H0z"/></clipPath></defs></svg>
